X:1
T:Vaughn's Ramble
T:Vaughn's Ramble
T:Nathaniel Kynaston (1711)
C:Nathaniel Kynaston (1711)
L:1/8
M:9/8
K:A
V:1 treble 
V:1
 A | c>de e2 a ecAd>effgagbefaeBcdcde e2 aecABGE | cea cea ecAdfadfabgeaecf z z e2 dc>BAGEG A2 A | %3
 c>de e2 a ecAd>effgagbefaeBcdcde e2 aecABGE | cea cea ecAdfadfabgeaecf z z e2 dc>BAGEG A2 B/A/ | %5
 GAB B2 e BGEBcdcfe ^d2 BgbgfafegedBe e2 d e2 a | %6
 ecA ce a2 gbfdBbag>feaecd<f z c<e z cBAGEG A2 B/ A/G | %7
 AB B2 eB GEBcdcfe ^d2 BgbgfafegedBe e2 d e2 ae | cAc e a2 gbfdBbag>feaecd<f z c<e z cBAGEG A2 || %9

